public/img/logo--colored.svg

<svg width="127" height="38" viewBox="0 0 127 38" fill="none" xmlns="http://www.w3.org/2000/svg">
<path d="M98.3643 18.0228C99.2739 16.4354 99.8282 16.5571 100.519 17.527C101.339 18.6812 101.723 20.4266 101.885 21.4375C100.237 24.0145 98.4293 26.5625 97.4557 26.816C97.4284 26.8222 97.4003 26.8244 97.3723 26.8224C96.4158 26.7187 97.1194 20.1874 98.3643 18.0218V18.0228ZM123.388 15.2646C122.641 15.7567 111.948 27.7131 111.005 27.7379C109.411 27.7739 109.398 19.7391 109.254 17.8044C109.133 16.1894 108.683 16.3428 106.915 15.8263C106.471 15.7001 106.188 15.6687 106.001 15.666C105.98 15.666 105.955 15.666 105.939 15.666H105.918C105.807 15.669 105.697 15.6961 105.597 15.7452C105.497 15.7943 105.409 15.8644 105.338 15.9507C105.023 16.3359 104.181 17.7435 103.149 19.423C102.745 18.413 101.927 16.6815 100.887 15.7927C99.8273 14.8836 96.6171 14.1961 95.1648 17.1289C92.6712 22.1742 94.0645 26.9551 95.5445 27.8932C96.9645 28.7931 99.9411 29.0788 103.085 25.2051C103.846 24.2712 104.559 23.3358 105.207 22.4488C105.748 25.3447 106.596 28.0393 107.622 28.7544C108.973 29.6994 111.186 30.8085 115.395 25.9898C119.603 21.1711 122.278 17.6076 123.568 16.5253C124.092 16.0852 124.28 15.713 124.28 15.4605C124.274 15.2508 124.133 15.12 123.936 15.0974C123.776 15.0817 123.586 15.1315 123.39 15.2619L123.388 15.2646ZM17.5466 26.6105C18.7118 20.7422 20.5051 18.7816 21.4418 19.917C22.0657 20.6726 22.7707 21.9558 23.1725 22.7276C22.2551 24.4661 22.1127 25.5912 21.2644 26.8565C20.0821 28.6263 18.6441 30.2201 17.8571 30.1376C17.2765 30.0745 17.0522 29.0981 17.5466 26.6086V26.6105ZM38.4606 28.0674C38.3828 27.979 38.3112 27.8854 38.2463 27.7872C38.2343 27.7531 38.2256 27.7195 38.2108 27.6817C37.2612 25.2397 36.7493 22.2959 36.6138 19.2862C38.8988 19.6548 42.0508 19.7884 42.2642 23.0312C42.4692 26.1391 39.5577 28.2475 38.6559 28.1526C38.5824 28.1497 38.5127 28.1193 38.4606 28.0674ZM41.5454 3.12123C42.8074 2.8056 43.6465 6.22446 42.2057 10.8648C40.7713 15.4701 37.7151 16.9312 36.5733 17.5085C36.5825 10.3709 38.5831 3.86121 41.5454 3.12123ZM33.9557 8.95034C33.3996 12.3512 33.5143 15.5853 33.8635 18.5526C33.541 19.065 33.1904 19.7709 32.8038 20.7288C29.9157 27.7826 29.1992 27.9628 29.1992 27.9628C29.1992 27.9628 29.061 22.2148 29.1393 20.821C29.2177 19.4272 29.5342 19.4728 29.5342 19.4728C29.5342 19.4728 30.0236 19.094 29.1596 18.7646C29.124 18.7507 29.0869 18.7408 29.049 18.7351C28.2934 18.4425 27.2779 17.6961 26.4964 17.8219C25.9688 17.908 25.2224 19.0106 24.3769 20.4989C23.4701 19.8405 21.9081 18.8572 20.6369 18.7554C18.2008 18.5646 16.5734 18.7309 15.4197 22.7972C14.1383 27.2933 14.9004 30.4458 18.3414 31.3618C21.3769 32.176 23.9544 29.2958 26.1951 25.2074C26.2342 26.9556 26.4936 28.4706 27.3603 29.147C29.0122 30.4279 30.7728 31.9051 33.1199 28.1121C33.7997 27.0066 34.4002 25.8542 34.9169 24.6637C36.1019 29.0617 38.3085 29.5418 40.7616 29.4741C43.6967 29.393 46.4032 26.0939 46.3613 22.9815C46.3212 20.1354 42.6982 18.871 38.4504 18.3927C42.5052 16.3156 45.2066 14.2187 46.9345 9.5415C49.007 3.94507 45.1651 1.7182 41.9223 1.17727C41.6194 1.12505 41.3276 1.0845 41.0468 1.05563C36.888 0.606383 35.0284 2.45358 33.9557 8.95034ZM82.7906 26.3842C82.0662 25.4871 82.3104 20.3639 83.1352 18.9609C84.8225 16.088 85.8182 19.658 86.1062 20.251C86.3467 20.7542 87.2429 20.8445 88.2718 21.0993C86.2735 24.8913 83.9457 26.6146 83.062 26.5174C83.0101 26.5146 82.9593 26.5013 82.9127 26.4784C82.8661 26.4555 82.8245 26.4235 82.7906 26.3842ZM68.976 7.99471C68.976 7.99471 68.5272 8.64854 69.9781 9.6272C71.4291 10.6059 71.2222 10.0147 72.5022 8.34351C83.4651 -5.98022 92.6025 6.92344 90.4719 15.2628C90.0859 16.8042 89.5676 18.3094 88.9229 19.7617C88.7505 19.4258 88.5662 19.0963 88.4294 18.83C87.9322 17.8675 86.1574 16.059 84.0171 15.7047C82.8362 15.5107 81.359 15.4116 80.2389 16.3792H80.2296C80.2252 16.3833 80.2226 16.3889 80.2223 16.3949C79.8509 16.7256 79.5494 17.1273 79.3358 17.5763C79.1568 17.9408 79.0105 18.3204 78.8985 18.7107C76.9803 22.001 73.6735 27.2961 73.7688 24.5693C73.8628 22.2261 74.2702 19.9062 74.9802 17.6712C75.7934 15.6503 74.8 15.9572 73.9518 15.9618C72.7998 15.9728 71.6479 16.0654 71.5899 16.3359C70.7416 20.4109 65.523 27.6204 65.6691 23.2727C65.7331 21.3536 67.1555 16.0184 66.709 15.4429C66.2879 14.8928 64.6761 14.0901 64.0942 14.0335C63.5445 13.7791 63.0344 13.8952 62.2866 15.1361C61.63 16.2212 59.7381 20.7265 58.202 23.5842C58.7318 20.3072 59.4525 15.6867 59.5045 14.5117C59.5829 12.6378 57.7048 12.1347 56.9376 11.8416C55.4968 11.2827 55.2568 10.9934 53.751 12.9935C53.1059 13.8505 52.0075 15.7678 50.8786 18.0587C51.1919 14.7873 50.4962 14.6735 49.1936 14.2344C48.7397 14.0791 48.0822 14.045 47.2584 16.1014C47.0884 16.5161 48.2578 16.4852 48.2578 16.4852C48.2578 16.4852 46.2544 32.9745 46.1383 34.3167C46.0222 35.6589 46.3898 35.9612 47.5316 36.457C48.2055 36.7506 48.8999 36.9948 49.6092 37.1877C49.6092 37.1877 48.9591 30.0828 52.025 22.2645C53.4837 18.548 55.6162 16.4589 56.4916 15.3282C56.7906 17.8246 54.8789 24.0753 54.5449 25.4761C54.2993 26.4796 55.089 27.0795 56.0064 27.5688C57.4154 28.3982 58.1937 28.777 58.8134 28.2181C59.2424 27.8324 61.4324 22.6364 63.2685 18.9719C63.1482 21.0269 62.8953 23.3787 63.6767 25.5774C64.1205 26.8178 65.6917 27.5753 66.686 27.8259C67.52 28.0333 69.2137 26.8943 71.3646 23.9095C71.0577 25.7203 71.2724 27.0781 73.0804 27.6011C74.1287 27.9052 76.5127 25.2512 78.6907 22.4405C79.0132 24.6259 80.0923 26.6644 81.7391 27.6158C86.8536 30.5767 91.3764 24.4297 93.3222 18.1402C95.4325 11.3076 91.9796 5.13476 86.9697 2.35175C85.5439 1.55834 83.9739 1.05798 82.3519 0.880077C77.9387 0.406412 72.986 2.36558 68.976 7.99471ZM18.8501 9.1692C15.1501 9.04802 3.73703 11.1265 1.17934 12.595C0.419543 13.0299 0.168427 13.5962 0.189162 14.174C0.243992 15.5448 1.82809 16.9953 1.82809 16.9953C1.82809 16.9953 1.82809 15.8157 3.39699 15.3619C3.74625 15.2609 6.43342 14.6431 9.72326 13.8966C9.12796 18.2504 8.50962 25.7014 8.29859 28.1139C8.06406 30.7822 7.96868 32.2479 10.1297 33.3979C11.4843 34.1154 12.2985 34.1172 12.2059 33.533C11.8561 31.3503 13.0813 19.8875 14.0185 12.9263C18.6261 11.8886 22.1279 10.9422 22.3675 10.8925C22.8356 10.7906 21.3769 9.42446 19.2647 9.19777C19.1265 9.1821 18.9883 9.17288 18.8501 9.16828V9.1692Z" fill="#476FB2"/>
<path d="M111.478 3.81122C111.478 3.81122 110.626 5.53401 110.182 7.96683L110.555 8.43405C110.555 8.43405 111.079 7.65582 112.046 7.51252C112.225 7.48835 112.407 7.52652 112.562 7.62062C112.717 7.71473 112.834 7.85907 112.895 8.0295C113.142 8.70544 113.185 10.0025 111.295 11.7617C111.167 11.8829 111.011 11.9709 110.841 12.0178C110.671 12.0647 110.492 12.0692 110.32 12.0308C109.955 11.9484 109.612 11.7891 109.313 11.5635C109.285 11.542 109.252 11.5282 109.218 11.5236C109.183 11.5189 109.147 11.5236 109.115 11.5372C109.083 11.5507 109.054 11.5726 109.033 11.6007C109.012 11.6287 108.999 11.6618 108.995 11.6967L108.944 12.186C108.944 12.186 110.887 13.8323 113.141 11.9985C115.394 10.1647 115.299 8.78976 115.299 8.78976C115.299 8.78976 115.17 6.62924 111.858 6.45599L112.059 4.85899C112.059 4.85899 113.795 4.37242 115.359 4.47333C115.498 4.48228 115.637 4.46091 115.766 4.4107C115.896 4.36049 116.013 4.28265 116.109 4.18259C116.418 3.85361 116.829 3.34861 116.831 2.98461C116.836 2.39022 113.208 2.90904 111.478 3.81122Z" fill="#476FB2"/>
<path d="M117.016 10.2654C117.016 10.2654 115.98 9.83686 115.683 11.4403C115.385 13.0438 117.845 11.5735 117.016 10.2654Z" fill="#476FB2"/>
<path d="M119.229 7.24089C119.229 7.24089 119.006 11.2168 120.452 11.1449C122.001 11.068 123.563 8.15458 123.556 6.01434C123.551 4.55557 121.051 4.44775 120.009 5.80055C120.009 5.80055 119.023 5.79364 119.115 5.22736C119.331 3.85843 122.294 1.95041 125.463 3.72112C127.525 4.8758 125.006 12.1033 120.207 12.119C120.207 12.119 118.283 11.984 118.407 8.81071C118.407 8.81071 118.348 7.48233 119.229 7.24089Z" fill="#476FB2"/>
</svg>

<svg width="127" height="38" fill="none" xmlns="http://www.w3.org/2000/svg"><path d="M98.364 18.023c.91-1.588 1.464-1.466 2.155-.496.82 1.154 1.204 2.9 1.366 3.91-1.648 2.578-3.456 5.125-4.43 5.379a.285.285 0 01-.083.006c-.956-.103-.253-6.635.992-8.8zm25.024-2.758c-.747.492-11.44 12.448-12.383 12.473-1.594.036-1.607-7.999-1.751-9.934-.121-1.615-.571-1.461-2.339-1.978-.444-.126-.727-.157-.914-.16h-.083a.778.778 0 00-.58.285c-.315.385-1.157 1.793-2.189 3.472-.404-1.01-1.222-2.741-2.262-3.63-1.06-.91-4.27-1.597-5.722 1.336-2.494 5.045-1.1 9.826.38 10.764 1.42.9 4.396 1.186 7.54-2.688a66.175 66.175 0 002.122-2.756c.541 2.896 1.389 5.59 2.415 6.305 1.351.945 3.564 2.054 7.773-2.764 4.208-4.819 6.883-8.382 8.173-9.465.524-.44.712-.812.712-1.064-.006-.21-.147-.341-.344-.364-.16-.015-.35.035-.546.165l-.002.003zM17.547 26.61c1.165-5.868 2.958-7.828 3.895-6.693.624.756 1.329 2.039 1.73 2.81-.917 1.74-1.06 2.864-1.908 4.13-1.182 1.77-2.62 3.363-3.407 3.28-.58-.063-.805-1.039-.31-3.528v.001zm20.914 1.457a2.563 2.563 0 01-.215-.28c-.012-.034-.02-.067-.035-.105-.95-2.442-1.462-5.386-1.597-8.396 2.285.369 5.437.502 5.65 3.745.205 3.108-2.706 5.216-3.608 5.122a.293.293 0 01-.195-.086zm3.084-24.946c1.262-.315 2.102 3.103.66 7.744-1.434 4.605-4.49 6.066-5.632 6.644.01-7.138 2.01-13.648 4.972-14.388zm-7.59 5.83c-.555 3.4-.44 6.634-.091 9.602-.323.512-.674 1.218-1.06 2.176-2.888 7.054-3.605 7.234-3.605 7.234s-.138-5.748-.06-7.142c.079-1.394.395-1.348.395-1.348s.49-.379-.374-.708a.514.514 0 00-.111-.03c-.756-.293-1.771-1.039-2.553-.913-.527.086-1.274 1.189-2.12 2.677-.906-.659-2.468-1.642-3.74-1.744-2.435-.19-4.063-.024-5.216 4.042-1.282 4.496-.52 7.649 2.921 8.565 3.036.814 5.613-2.066 7.854-6.155.04 1.749.299 3.264 1.165 3.94 1.652 1.28 3.413 2.758 5.76-1.035a27.439 27.439 0 001.797-3.448c1.185 4.398 3.392 4.878 5.845 4.81 2.935-.081 5.641-3.38 5.6-6.492-.04-2.847-3.664-4.111-7.912-4.59 4.055-2.076 6.757-4.173 8.484-8.85 2.073-5.597-1.769-7.824-5.012-8.365a12.963 12.963 0 00-.875-.121c-4.159-.45-6.019 1.398-7.091 7.894zm48.836 17.433c-.725-.897-.48-6.02.344-7.423 1.688-2.873 2.683.697 2.971 1.29.24.503 1.137.593 2.166.848-1.999 3.792-4.326 5.516-5.21 5.418a.386.386 0 01-.271-.133zM68.976 7.994s-.449.655 1.002 1.633c1.451.979 1.244.388 2.524-1.283 10.963-14.324 20.1-1.42 17.97 6.919a27.632 27.632 0 01-1.55 4.499c-.171-.336-.356-.666-.493-.932-.497-.962-2.272-2.771-4.412-3.125-1.18-.194-2.658-.293-3.778.674h-.01a.023.023 0 00-.007.016 3.71 3.71 0 00-.886 1.181 6.876 6.876 0 00-.438 1.135c-1.918 3.29-5.224 8.585-5.13 5.858a26.26 26.26 0 011.212-6.898c.813-2.02-.18-1.714-1.028-1.71-1.152.012-2.304.104-2.362.375-.848 4.075-6.067 11.284-5.92 6.937.063-1.92 1.486-7.255 1.039-7.83-.421-.55-2.033-1.353-2.615-1.41-.55-.254-1.06-.138-1.807 1.103-.657 1.085-2.549 5.59-4.085 8.448.53-3.277 1.25-7.897 1.303-9.072.078-1.874-1.8-2.377-2.567-2.67-1.441-.56-1.681-.849-3.187 1.151-.645.857-1.743 2.775-2.872 5.066.313-3.272-.383-3.386-1.685-3.825-.454-.155-1.112-.189-1.936 1.867-.17.415 1 .384 1 .384s-2.004 16.49-2.12 17.832c-.116 1.342.252 1.644 1.394 2.14.674.294 1.368.538 2.077.73 0 0-.65-7.104 2.416-14.922 1.459-3.717 3.591-5.806 4.467-6.937.299 2.497-1.613 8.747-1.947 10.148-.246 1.004.544 1.604 1.461 2.093 1.41.83 2.188 1.208 2.807.65.43-.387 2.62-5.583 4.456-9.247-.12 2.055-.374 4.407.408 6.605.444 1.24 2.015 1.998 3.009 2.249.834.207 2.528-.932 4.679-3.916-.307 1.81-.093 3.168 1.715 3.691 1.049.304 3.433-2.35 5.61-5.16.323 2.185 1.402 4.223 3.05 5.175 5.114 2.96 9.636-3.186 11.582-9.476 2.11-6.832-1.342-13.005-6.352-15.788A12.241 12.241 0 0082.352.88c-4.413-.474-9.366 1.486-13.376 7.115zM18.85 9.17c-3.7-.121-15.113 1.957-17.67 3.426-.76.435-1.012 1.001-.99 1.579.054 1.37 1.638 2.821 1.638 2.821s0-1.18 1.569-1.633c.35-.101 3.036-.719 6.326-1.465C9.128 18.25 8.51 25.7 8.3 28.114c-.235 2.668-.33 4.134 1.83 5.284 1.355.717 2.17.72 2.077.135-.35-2.183.875-13.646 1.813-20.607 4.607-1.037 8.109-1.984 8.348-2.034.469-.101-.99-1.468-3.102-1.694a5.217 5.217 0 00-.415-.03v.001zm92.628-5.359s-.852 1.723-1.296 4.156l.373.467s.524-.778 1.491-.921a.79.79 0 01.849.517c.247.675.29 1.973-1.6 3.732a1.077 1.077 0 01-.975.269 2.635 2.635 0 01-1.007-.468.201.201 0 00-.198-.026.197.197 0 00-.12.16l-.051.489s1.943 1.646 4.197-.188c2.253-1.833 2.158-3.208 2.158-3.208s-.129-2.16-3.441-2.334l.201-1.597s1.736-.487 3.3-.386a.953.953 0 00.75-.29c.309-.33.72-.834.722-1.198.005-.595-3.623-.076-5.353.826zm5.538 6.454s-1.036-.428-1.333 1.175c-.298 1.604 2.162.133 1.333-1.175zm2.213-3.025s-.223 3.977 1.223 3.905c1.549-.077 3.111-2.99 3.104-5.13-.005-1.46-2.505-1.567-3.547-.214 0 0-.986-.007-.894-.574.216-1.369 3.179-3.277 6.348-1.506 2.062 1.155-.457 8.382-5.256 8.398 0 0-1.924-.135-1.8-3.308 0 0-.059-1.329.822-1.57z" fill="#476FB2"/></svg>
